proprietary/assets/icons/symbolen-en-abstract/haakse-pijl-rechtsonder.svg

<svg enable-background="new 0 0 64 64" viewBox="0 0 64 64" xmlns="http://www.w3.org/2000/svg"><path d="m0 0h64v64h-64z" fill="none"/><path d="m54.5 29.1-14.86-18.82c-.64-.81-1.61-1.28-2.64-1.28s-2 .47-2.64 1.28l-14.86 18.82c-1 1.26-.96 3.05.09 4.27s2.81 1.52 4.21.73l8.2-4.7v13.6c0 1.1-.9 2-2 2h-17.28c-2.72 0-3.53 2.35-3.53 5s.81 5 3.53 5h17.28c6.63 0 12-5.37 12-12v-13.61l8.2 4.7c1.4.8 3.16.49 4.21-.73 1.04-1.21 1.08-3 .09-4.26z"/></svg>

<?xml version="1.0" encoding="utf-8"?>
<!-- Generator: Adobe Illustrator 24.1.3, SVG Export Plug-In . SVG Version: 6.00 Build 0)  -->
<svg version="1.1" xmlns="http://www.w3.org/2000/svg" xmlns:xlink="http://www.w3.org/1999/xlink" x="0px" y="0px"
	 viewBox="0 0 64 64" style="enable-background:new 0 0 64 64;" xml:space="preserve">
<style type="text/css">
	.st0{fill:none;}
</style>
<g id="Box">
	<rect class="st0" width="64" height="64"/>
</g>
<g id="Icon">
	<path d="M54.5,29.1L39.64,10.28C39,9.47,38.03,9,37,9s-2,0.47-2.64,1.28L19.5,29.1c-1,1.26-0.96,3.05,0.09,4.27
		c1.05,1.22,2.81,1.52,4.21,0.73l8.2-4.7V43c0,1.1-0.9,2-2,2H12.72c-2.72,0-3.53,2.35-3.53,5c0,2.65,0.81,5,3.53,5H30
		c6.63,0,12-5.37,12-12V29.39l8.2,4.7c1.4,0.8,3.16,0.49,4.21-0.73C55.45,32.15,55.49,30.36,54.5,29.1z"/>
</g>
</svg>
